symbols/web/person_search/materialsymbolsoutlined/person_search_wght300grad200_48px.svg

<svg xmlns="http://www.w3.org/2000/svg" height="48" width="48"><path d="M20.5 22.35q-2.95 0-5.075-2.125T13.3 15.2q0-3 2.125-5.1Q17.55 8 20.5 8q3 0 5.1 2.1 2.1 2.1 2.1 5.05 0 2.95-2.1 5.075t-5.1 2.125Zm0-2.9q1.8 0 3.025-1.275Q24.75 16.9 24.75 15.15t-1.225-3Q22.3 10.9 20.55 10.9q-1.8 0-3.05 1.225-1.25 1.225-1.25 3.025 0 1.75 1.25 3.025t3 1.275Zm23.3 26.4-6.3-6.35q-1.1.75-2.25 1.05-1.15.3-2.2.3-3.35 0-5.625-2.275T25.15 33q0-3.3 2.275-5.6T33 25.1q3.3 0 5.6 2.3t2.3 5.6q0 1.1-.275 2.25T39.5 37.5l6.35 6.3ZM33 37.95q2.1 0 3.55-1.425Q38 35.1 38 33q0-2.1-1.45-3.55Q35.1 28 33 28q-2.1 0-3.525 1.45Q28.05 30.9 28.05 33q0 2.1 1.425 3.525Q30.9 37.95 33 37.95ZM4.75 40.1v-4.6q0-1.7.85-2.95.85-1.25 2.4-2.1 2.65-1.3 6.775-2.3 4.125-1 8.475-.55-.4.75-.625 1.475-.225.725-.325 1.325-4.25-.35-7.725.725Q11.1 32.2 9.2 33.1q-.65.35-1.1 1.025-.45.675-.45 1.375v1.7h14.4q.75.75 1.375 1.525.625.775 1.325 1.375ZM20.5 15.15Zm1.55 22.05Z"/></svg>

<svg xmlns="http://www.w3.org/2000/svg" height="48" width="48"><path d="M20.5 22.35Q17.55 22.35 15.425 20.225Q13.3 18.1 13.3 15.2Q13.3 12.2 15.425 10.1Q17.55 8 20.5 8Q23.5 8 25.6 10.1Q27.7 12.2 27.7 15.15Q27.7 18.1 25.6 20.225Q23.5 22.35 20.5 22.35ZM20.5 19.45Q22.3 19.45 23.525 18.175Q24.75 16.9 24.75 15.15Q24.75 13.4 23.525 12.15Q22.3 10.9 20.55 10.9Q18.75 10.9 17.5 12.125Q16.25 13.35 16.25 15.15Q16.25 16.9 17.5 18.175Q18.75 19.45 20.5 19.45ZM43.8 45.85 37.5 39.5Q36.4 40.25 35.25 40.55Q34.1 40.85 33.05 40.85Q29.7 40.85 27.425 38.575Q25.15 36.3 25.15 33Q25.15 29.7 27.425 27.4Q29.7 25.1 33 25.1Q36.3 25.1 38.6 27.4Q40.9 29.7 40.9 33Q40.9 34.1 40.625 35.25Q40.35 36.4 39.5 37.5L45.85 43.8ZM33 37.95Q35.1 37.95 36.55 36.525Q38 35.1 38 33Q38 30.9 36.55 29.45Q35.1 28 33 28Q30.9 28 29.475 29.45Q28.05 30.9 28.05 33Q28.05 35.1 29.475 36.525Q30.9 37.95 33 37.95ZM4.75 40.1V35.5Q4.75 33.8 5.6 32.55Q6.45 31.3 8 30.45Q10.65 29.15 14.775 28.15Q18.9 27.15 23.25 27.6Q22.85 28.35 22.625 29.075Q22.4 29.8 22.3 30.4Q18.05 30.05 14.575 31.125Q11.1 32.2 9.2 33.1Q8.55 33.45 8.1 34.125Q7.65 34.8 7.65 35.5V37.2H22.65Q22.9 37.95 23.475 38.725Q24.05 39.5 24.75 40.1ZM20.5 15.15Q20.5 15.15 20.5 15.15Q20.5 15.15 20.5 15.15Q20.5 15.15 20.5 15.15Q20.5 15.15 20.5 15.15Q20.5 15.15 20.5 15.15Q20.5 15.15 20.5 15.15Q20.5 15.15 20.5 15.15Q20.5 15.15 20.5 15.15ZM22.3 30.4Q22.3 30.4 22.3 30.4Q22.3 30.4 22.3 30.4Q22.3 30.4 22.3 30.4Q22.3 30.4 22.3 30.4Q22.3 30.4 22.3 30.4Q22.3 30.4 22.3 30.4Z"/></svg>
